assets/tele5/mono.svg

<svg viewBox="0 0 24 24" xmlns="http://www.w3.org/2000/svg"><path d="m.006 0v5.027h3.824v-5.027h-.685v4.18h-.915v-4.106h-.677v4.106h-.87v-4.18h-.676zm5.623.004v14.154h8.658v-6.904h8.791v-7.25h-17.45zm-2.484 6.072v3.9h-3.14v.85h3.825v-4.75zm19.855 3.85-17.611 8.576c2.371 4.857 8.236 6.874 13.1 4.506v.002c4.863-2.37 6.883-8.227 4.511-13.084zm-22.994 2.203v5.027h3.824v-5.026h-.685v4.18h-.915v-4.106h-.677v4.106h-.87v-4.18h-.676zm0 6.07v5.791h.687v-2.47h3.137v-.848h-3.137v-2.473z"/></svg>

<svg xmlns="http://www.w3.org/2000/svg" viewBox="0 0 24 24"><path d="M.006 0v5.027H3.83V0h-.685v4.18H2.23V.074h-.677V4.18h-.87V0zm5.623.004v14.154h8.658V7.254h8.791V.004zM3.145 6.076v3.9H.005v.85H3.83v-4.75zM23 9.926 5.389 18.502c2.371 4.857 8.236 6.874 13.1 4.506v.002c4.863-2.37 6.883-8.227 4.511-13.084M.006 12.129v5.027H3.83V12.13h-.685v4.18H2.23v-4.106h-.677v4.106h-.87v-4.18zm0 6.07v5.791h.687v-2.47H3.83v-.848H.693v-2.473z"/></svg>
